X: 1
T:N°88
N:page 107
S:Manuscrit Wandembrile (1778), Archives de l'Etat à Namur
Z:ABC transcription Olivier VIENNE troubadourwallon@gmail.com
K:Gmaj
M:2/4
L:1/8
B>AGB|AGDB,|B>AGB|AGDB,|G2 GF/2G/2|A2 AG/2A/2|BB c/2B/2A/2G/2|D4:|
|:D>GAF|GABG|D>GAF|GABG|[Ec]2 [Ec]2|Bc/2d/2 eA|G2 D2|G,4:|]





